icon_installer/data/icons/scalable/actions/show-screen-privacy5-symbolic.svg

<?xml version="1.0" encoding="UTF-8"?>
<svg height="16px" viewBox="0 0 16 16" width="16px" xmlns="http://www.w3.org/2000/svg">
    <g fill="#222222">
        <path d="m 3 1 c -1.660156 0 -3 1.339844 -3 3 v 7 c 0 1.660156 1.339844 3 3 3 h 9.007812 c 1.660157 0 3 -1.339844 3 -3 v -7 c 0 -1.660156 -1.339843 -3 -3 -3 z m 0 2 h 9.007812 c 0.550782 0 1 0.445312 1 1 v 7 c 0 0.554688 -0.449218 1 -1 1 h -9.007812 c -0.554688 0 -1 -0.445312 -1 -1 v -7 c 0 -0.554688 0.445312 -1 1 -1 z m 0 0"/>
        <path d="m 7.5 16 c 2.648438 0 3.527344 -1 3.527344 -1 h -7.054688 s 0.878906 1 3.527344 1 z m 0 0"/>
        <path d="m 11 2 h 1 v 10.5 h -1 z m -2 0 h 1 v 10.5 h -1 z m -2 0 h 1 v 10.5 h -1 z m -2 0 h 1 v 10.5 h -1 z m -2 0 h 1 v 10.5 h -1 z m 0 0"/>
    </g>
</svg>

<svg xmlns="http://www.w3.org/2000/svg" width="16" height="16"><g fill="#222"><path d="M3 1C1.34 1 0 2.34 0 4v7c0 1.66 1.34 3 3 3h9.008c1.66 0 3-1.34 3-3V4c0-1.66-1.34-3-3-3zm0 2h9.008a1 1 0 0 1 1 1v7a1 1 0 0 1-1 1H3c-.555 0-1-.445-1-1V4c0-.555.445-1 1-1zm4.5 13c2.648 0 3.527-1 3.527-1H3.973s.879 1 3.527 1zm0 0"/><path d="M11 2h1v10.5h-1zM9 2h1v10.5H9zM7 2h1v10.5H7zM5 2h1v10.5H5zM3 2h1v10.5H3zm0 0"/></g></svg>
